packages/sources/assets/src/assets/cash.svg

<svg width="58" height="40" viewBox="0 0 58 40" fill="none" xmlns="http://www.w3.org/2000/svg">
<rect x="0.5" y="0.5" width="57" height="39" rx="3.5" fill="white" stroke="#F1F1F1"/>
<rect x="18" y="9" width="30" height="21" fill="#D7F0F4"/>
<path d="M29.8105 12.7591C35.3035 16.6061 37.1235 27.2259 37.1235 27.2259C37.1235 27.2259 34.4648 25.9411 32.558 27.7232C29.9306 26.215 27.6069 27.5968 27.6069 27.5968C27.6069 27.5968 25.6381 25.6118 23.1137 26.7376C23.1137 26.7376 23.2687 18.9009 29.8105 12.7591Z" fill="#E9F3F4"/>
<rect x="6.585" y="8.585" width="44.83" height="21.83" stroke="#D5D5D5" stroke-width="1.17"/>
<rect x="48" y="9" width="3" height="21" fill="#73859D"/>
<path fill-rule="evenodd" clip-rule="evenodd" d="M21.606 18.8132L21.6098 18.007L17.9333 17.9897C18.0164 17.655 18.2152 17.3508 18.53 17.0772C18.7062 16.9231 18.9483 16.7614 19.2563 16.5921L19.902 16.2347C20.4708 15.9181 20.8655 15.648 21.0859 15.4245C21.467 15.0406 21.6588 14.5767 21.6613 14.0329C21.6637 13.5176 21.4881 13.0488 21.1343 12.6266C20.7805 12.2045 20.2181 11.9916 19.4471 11.988C18.5194 11.9836 17.8706 12.3094 17.5008 12.9653C17.2922 13.3374 17.1818 13.819 17.1696 14.4102L18.03 14.4143C18.0445 13.9938 18.1118 13.6653 18.2321 13.4288C18.4567 12.9872 18.8589 12.7677 19.4387 12.7704C19.8305 12.7723 20.1434 12.8899 20.3774 13.1234C20.6114 13.3569 20.7274 13.6713 20.7256 14.0665C20.724 14.4048 20.5941 14.7045 20.3358 14.9657C20.1721 15.1325 19.8875 15.3336 19.482 15.5688L18.5769 16.091C17.9703 16.4422 17.5618 16.834 17.3513 17.2661C17.1409 17.6983 17.0186 18.2068 16.9845 18.7915L21.606 18.8132ZM24.6375 19.0124C25.5339 19.0166 26.1816 18.5865 26.5806 17.722C26.8561 17.1194 26.9961 16.3565 27.0004 15.4333C27.0049 14.4595 26.8581 13.6921 26.5598 13.1311C26.1746 12.4052 25.5463 12.0403 24.675 12.0362C23.7065 12.0316 23.0349 12.5439 22.6602 13.5728C22.4602 14.1252 22.3583 14.7871 22.3547 15.5585C22.35 16.5545 22.5109 17.3488 22.8372 17.9416C23.2288 18.6517 23.8289 19.0086 24.6375 19.0124ZM23.4845 17.2664C23.7071 17.9093 24.0911 18.232 24.6365 18.2346C25.0753 18.2366 25.4257 18.0423 25.6877 17.6514C25.9496 17.2606 26.0831 16.5309 26.0882 15.4622C26.0918 14.6908 26.0007 14.0556 25.815 13.5568C25.6293 13.0579 25.2653 12.8073 24.7231 12.8047C24.2247 12.8024 23.8593 13.037 23.6267 13.5086C23.3941 13.9802 23.2756 14.676 23.2713 15.596C23.2681 16.2884 23.3391 16.8452 23.4845 17.2664Z" fill="black"/>
<path fill-rule="evenodd" clip-rule="evenodd" d="M21.606 18.8132L21.6098 18.007L17.9333 17.9897C18.0164 17.655 18.2152 17.3508 18.53 17.0772C18.7062 16.9231 18.9483 16.7614 19.2563 16.5921L19.902 16.2347C20.4708 15.9181 20.8655 15.648 21.0859 15.4245C21.467 15.0406 21.6588 14.5767 21.6613 14.0329C21.6637 13.5176 21.4881 13.0488 21.1343 12.6266C20.7805 12.2045 20.2181 11.9916 19.4471 11.988C18.5194 11.9836 17.8706 12.3094 17.5008 12.9653C17.2922 13.3374 17.1818 13.819 17.1696 14.4102L18.03 14.4143C18.0445 13.9938 18.1118 13.6653 18.2321 13.4288C18.4567 12.9872 18.8589 12.7677 19.4387 12.7704C19.8305 12.7723 20.1434 12.8899 20.3774 13.1234C20.6114 13.3569 20.7274 13.6713 20.7256 14.0665C20.724 14.4048 20.5941 14.7045 20.3358 14.9657C20.1721 15.1325 19.8875 15.3336 19.482 15.5688L18.5769 16.091C17.9703 16.4422 17.5618 16.834 17.3513 17.2661C17.1409 17.6983 17.0186 18.2068 16.9845 18.7915L21.606 18.8132ZM24.6375 19.0124C25.5339 19.0166 26.1816 18.5865 26.5806 17.722C26.8561 17.1194 26.9961 16.3565 27.0004 15.4333C27.0049 14.4595 26.8581 13.6921 26.5598 13.1311C26.1746 12.4052 25.5463 12.0403 24.675 12.0362C23.7065 12.0316 23.0349 12.5439 22.6602 13.5728C22.4602 14.1252 22.3583 14.7871 22.3547 15.5585C22.35 16.5545 22.5109 17.3488 22.8372 17.9416C23.2288 18.6517 23.8289 19.0086 24.6375 19.0124ZM23.4845 17.2664C23.7071 17.9093 24.0911 18.232 24.6365 18.2346C25.0753 18.2366 25.4257 18.0423 25.6877 17.6514C25.9496 17.2606 26.0831 16.5309 26.0882 15.4622C26.0918 14.6908 26.0007 14.0556 25.815 13.5568C25.6293 13.0579 25.2653 12.8073 24.7231 12.8047C24.2247 12.8024 23.8593 13.037 23.6267 13.5086C23.3941 13.9802 23.2756 14.676 23.2713 15.596C23.2681 16.2884 23.3391 16.8452 23.4845 17.2664Z" fill="#3D4C64"/>
<path fill-rule="evenodd" clip-rule="evenodd" d="M9.84198 28.92L9.8436 28.5744L8.373 28.5675C8.40627 28.4241 8.48587 28.2937 8.61179 28.1764C8.68231 28.1103 8.77917 28.041 8.90238 27.9684L9.16074 27.8151C9.3883 27.6793 9.54619 27.5636 9.6344 27.4678C9.78687 27.3032 9.86366 27.1043 9.86475 26.8713C9.86578 26.6504 9.79558 26.4495 9.65413 26.2687C9.51267 26.0878 9.28774 25.9966 8.97933 25.9952C8.60823 25.9934 8.34868 26.1331 8.20068 26.4143C8.11718 26.5738 8.07296 26.7802 8.06801 27.0336L8.41215 27.0352C8.41801 26.855 8.445 26.7142 8.49312 26.6128C8.58302 26.4235 8.74394 26.3294 8.97588 26.3305C9.13259 26.3312 9.25773 26.3816 9.35129 26.4817C9.44485 26.5817 9.49123 26.7164 9.49044 26.8858C9.48976 27.0308 9.43775 27.1592 9.33442 27.2712C9.26889 27.3427 9.15503 27.4289 8.99282 27.5298L8.6307 27.7537C8.38802 27.9043 8.22456 28.0723 8.14032 28.2575C8.05608 28.4428 8.0071 28.6607 7.99339 28.9113L9.84198 28.92ZM11.0546 29.0049C11.4131 29.0066 11.6723 28.8222 11.832 28.4517C11.9423 28.1934 11.9983 27.8664 12.0002 27.4707C12.0021 27.0534 11.9435 26.7245 11.8243 26.4841C11.6703 26.1731 11.419 26.0168 11.0705 26.0151C10.6831 26.0133 10.4144 26.2329 10.2644 26.674C10.1843 26.9107 10.1434 27.1944 10.1419 27.525C10.1399 27.9518 10.2041 28.2923 10.3346 28.5463C10.4911 28.8505 10.7311 29.0034 11.0546 29.0049ZM10.5936 28.2568C10.6825 28.5323 10.8361 28.6706 11.0543 28.6716C11.2298 28.6724 11.37 28.5891 11.4748 28.4215C11.5796 28.254 11.6331 27.9412 11.6353 27.4832C11.6368 27.1526 11.6005 26.8804 11.5263 26.6667C11.4521 26.4529 11.3065 26.3455 11.0896 26.3445C10.8903 26.3436 10.7441 26.4442 10.651 26.6463C10.5579 26.8484 10.5104 27.1467 10.5085 27.541C10.5071 27.8377 10.5355 28.0763 10.5936 28.2568Z" fill="black"/>
<path fill-rule="evenodd" clip-rule="evenodd" d="M9.84198 28.92L9.8436 28.5744L8.373 28.5675C8.40627 28.4241 8.48587 28.2937 8.61179 28.1764C8.68231 28.1103 8.77917 28.041 8.90238 27.9684L9.16074 27.8151C9.3883 27.6793 9.54619 27.5636 9.6344 27.4678C9.78687 27.3032 9.86366 27.1043 9.86475 26.8713C9.86578 26.6504 9.79558 26.4495 9.65413 26.2687C9.51267 26.0878 9.28774 25.9966 8.97933 25.9952C8.60823 25.9934 8.34868 26.1331 8.20068 26.4143C8.11718 26.5738 8.07296 26.7802 8.06801 27.0336L8.41215 27.0352C8.41801 26.855 8.445 26.7142 8.49312 26.6128C8.58302 26.4235 8.74394 26.3294 8.97588 26.3305C9.13259 26.3312 9.25773 26.3816 9.35129 26.4817C9.44485 26.5817 9.49123 26.7164 9.49044 26.8858C9.48976 27.0308 9.43775 27.1592 9.33442 27.2712C9.26889 27.3427 9.15503 27.4289 8.99282 27.5298L8.6307 27.7537C8.38802 27.9043 8.22456 28.0723 8.14032 28.2575C8.05608 28.4428 8.0071 28.6607 7.99339 28.9113L9.84198 28.92ZM11.0546 29.0049C11.4131 29.0066 11.6723 28.8222 11.832 28.4517C11.9423 28.1934 11.9983 27.8664 12.0002 27.4707C12.0021 27.0534 11.9435 26.7245 11.8243 26.4841C11.6703 26.1731 11.419 26.0168 11.0705 26.0151C10.6831 26.0133 10.4144 26.2329 10.2644 26.674C10.1843 26.9107 10.1434 27.1944 10.1419 27.525C10.1399 27.9518 10.2041 28.2923 10.3346 28.5463C10.4911 28.8505 10.7311 29.0034 11.0546 29.0049ZM10.5936 28.2568C10.6825 28.5323 10.8361 28.6706 11.0543 28.6716C11.2298 28.6724 11.37 28.5891 11.4748 28.4215C11.5796 28.254 11.6331 27.9412 11.6353 27.4832C11.6368 27.1526 11.6005 26.8804 11.5263 26.6667C11.4521 26.4529 11.3065 26.3455 11.0896 26.3445C10.8903 26.3436 10.7441 26.4442 10.651 26.6463C10.5579 26.8484 10.5104 27.1467 10.5085 27.541C10.5071 27.8377 10.5355 28.0763 10.5936 28.2568Z" fill="#3D4C64"/>
<path d="M8.02942 13.069H12.6221V10.0315H8.02942V13.069Z" fill="#6B70C0"/>
<path fill-rule="evenodd" clip-rule="evenodd" d="M10.257 10.5936L10.2245 10.6937L10.3095 10.6318L10.3945 10.6938L10.362 10.5936L10.4471 10.5316H10.342L10.3095 10.4314L10.277 10.5316H10.1719L10.257 10.5936ZM10.7341 10.8382L10.7666 10.738L10.6814 10.676H10.7866L10.8191 10.5759L10.8516 10.676H10.9568L10.8717 10.738L10.9042 10.8382L10.8191 10.7763L10.7341 10.8382ZM9.75424 10.7466L9.72172 10.8467L9.8068 10.7849L9.89181 10.8467L9.8593 10.7466L9.94437 10.6846H9.83928L9.8068 10.5844L9.77436 10.6846H9.66919L9.75424 10.7466ZM9.38532 11.1025L9.35288 11.2027L9.43789 11.1407L9.52286 11.2027L9.49045 11.1025L9.57546 11.0407H9.47033L9.43789 10.9404L9.40544 11.0406H9.30028L9.38532 11.1025ZM9.26177 11.6028L9.22926 11.703L9.31437 11.6411L9.39938 11.703L9.36694 11.6028L9.45198 11.5408H9.34682L9.31437 11.4408L9.28182 11.5408H9.1767L9.26177 11.6028ZM10.2399 12.6692L10.2724 12.5691L10.1874 12.5072H10.2925L10.325 12.4069L10.3575 12.5072H10.4625L10.3775 12.5691L10.41 12.6692L10.325 12.6073L10.2399 12.6692ZM9.3597 12.1775L9.39215 12.0773L9.30717 12.0154H9.41226L9.44471 11.9152L9.47726 12.0154H9.58235L9.49727 12.0773L9.52986 12.1775L9.44471 12.1156L9.3597 12.1775ZM9.76279 12.4385L9.73031 12.5386L9.81532 12.4766L9.90043 12.5386L9.86785 12.4385L9.953 12.3765H9.84783L9.81532 12.2764L9.78284 12.3765H9.67775L9.76279 12.4385ZM10.7409 12.5283L10.7734 12.4281L10.6883 12.3662H10.7934L10.8259 12.266L10.8585 12.3662H10.9635L10.8786 12.4281L10.9109 12.5283L10.8259 12.4664L10.7409 12.5283ZM11.1302 12.0739L11.0978 12.174L11.1828 12.1121L11.2678 12.174L11.2354 12.0739L11.3204 12.012H11.2153L11.1828 11.9118L11.1504 12.012H11.0453L11.1302 12.0739ZM11.2523 11.6806L11.2847 11.5805L11.1997 11.5185H11.3048L11.3373 11.4183L11.3697 11.5185H11.4748L11.3898 11.5805L11.4223 11.6806L11.3373 11.6187L11.2523 11.6806ZM11.1354 11.087L11.103 11.1872L11.188 11.1253L11.273 11.1872L11.2405 11.087L11.3256 11.0251H11.2205L11.188 10.9249L11.1554 11.0251H11.0503L11.1354 11.087Z" fill="#FCFC02"/>
</svg>

<svg width="58" height="40" fill="none" xmlns="http://www.w3.org/2000/svg"><rect x=".5" y=".5" width="57" height="39" rx="3.5" fill="#fff" stroke="#F1F1F1"/><path fill="#D7F0F4" d="M18 9h30v21H18z"/><path d="M29.81 12.76c5.494 3.846 7.314 14.466 7.314 14.466s-2.66-1.285-4.566.497c-2.627-1.508-4.951-.126-4.951-.126s-1.969-1.985-4.493-.86c0 0 .155-7.836 6.697-13.978Z" fill="#E9F3F4"/><path stroke="#D5D5D5" stroke-width="1.17" d="M6.585 8.585h44.83v21.83H6.585z"/><path fill="#73859D" d="M48 9h3v21h-3z"/><path fill-rule="evenodd" clip-rule="evenodd" d="m21.606 18.813.004-.806-3.677-.017c.083-.335.282-.64.597-.913.176-.154.418-.316.726-.485l.646-.357c.569-.317.963-.587 1.184-.81.381-.384.573-.848.575-1.392.003-.515-.173-.984-.527-1.406-.354-.423-.916-.635-1.687-.639-.928-.004-1.576.321-1.946.977-.209.372-.32.854-.331 1.445l.86.004c.014-.42.082-.749.202-.985.225-.442.627-.661 1.207-.659.392.002.704.12.938.353.234.234.35.548.349.944a1.252 1.252 0 0 1-.39.899c-.164.167-.448.368-.854.603l-.905.522c-.607.351-1.015.743-1.226 1.175-.21.432-.332.94-.366 1.526l4.621.021Zm3.031.2c.897.004 1.545-.427 1.944-1.291.275-.603.415-1.366.42-2.289.004-.973-.143-1.74-.441-2.302-.385-.726-1.014-1.09-1.885-1.095-.969-.004-1.64.508-2.015 1.537-.2.552-.302 1.214-.305 1.986-.005.996.156 1.79.482 2.383.392.71.992 1.067 1.8 1.07Zm-1.152-1.747c.222.643.606.966 1.152.969.438.002.789-.193 1.05-.584.263-.39.396-1.12.401-2.189.004-.771-.087-1.406-.273-1.905-.186-.5-.55-.75-1.092-.752-.498-.003-.864.232-1.096.704-.233.471-.351 1.167-.356 2.087-.003.692.068 1.25.213 1.67Z" fill="#000"/><path fill-rule="evenodd" clip-rule="evenodd" d="m21.606 18.813.004-.806-3.677-.017c.083-.335.282-.64.597-.913.176-.154.418-.316.726-.485l.646-.357c.569-.317.963-.587 1.184-.81.381-.384.573-.848.575-1.392.003-.515-.173-.984-.527-1.406-.354-.423-.916-.635-1.687-.639-.928-.004-1.576.321-1.946.977-.209.372-.32.854-.331 1.445l.86.004c.014-.42.082-.749.202-.985.225-.442.627-.661 1.207-.659.392.002.704.12.938.353.234.234.35.548.349.944a1.252 1.252 0 0 1-.39.899c-.164.167-.448.368-.854.603l-.905.522c-.607.351-1.015.743-1.226 1.175-.21.432-.332.94-.366 1.526l4.621.021Zm3.031.2c.897.004 1.545-.427 1.944-1.291.275-.603.415-1.366.42-2.289.004-.973-.143-1.74-.441-2.302-.385-.726-1.014-1.09-1.885-1.095-.969-.004-1.64.508-2.015 1.537-.2.552-.302 1.214-.305 1.986-.005.996.156 1.79.482 2.383.392.71.992 1.067 1.8 1.07Zm-1.152-1.747c.222.643.606.966 1.152.969.438.002.789-.193 1.05-.584.263-.39.396-1.12.401-2.189.004-.771-.087-1.406-.273-1.905-.186-.5-.55-.75-1.092-.752-.498-.003-.864.232-1.096.704-.233.471-.351 1.167-.356 2.087-.003.692.068 1.25.213 1.67Z" fill="#3D4C64"/><path fill-rule="evenodd" clip-rule="evenodd" d="m9.842 28.92.002-.346-1.471-.007a.771.771 0 0 1 .239-.39 1.62 1.62 0 0 1 .29-.209l.259-.153c.227-.136.385-.251.473-.347a.853.853 0 0 0 .23-.597.947.947 0 0 0-.21-.602c-.141-.181-.366-.272-.675-.274-.37-.002-.63.138-.778.42-.084.159-.128.365-.133.619l.344.001a1.09 1.09 0 0 1 .081-.422c.09-.19.25-.284.483-.282.157 0 .282.05.375.15.094.1.14.235.14.405a.556.556 0 0 1-.157.385 1.678 1.678 0 0 1-.341.259l-.362.224c-.243.15-.406.318-.49.503a1.811 1.811 0 0 0-.148.654l1.849.009Zm1.213.085c.358.002.617-.183.777-.553.11-.259.166-.586.168-.981.002-.418-.056-.747-.176-.987a.788.788 0 0 0-.754-.469c-.387-.002-.656.218-.806.659-.08.237-.12.52-.122.851-.002.427.062.767.193 1.021.156.305.396.457.72.459Zm-.461-.748c.088.275.242.414.46.415.176 0 .316-.083.42-.25.106-.168.16-.48.161-.939.002-.33-.034-.603-.109-.816-.074-.214-.22-.322-.436-.323-.2 0-.346.1-.439.302-.093.202-.14.5-.143.895 0 .297.028.535.086.716Z" fill="#000"/><path fill-rule="evenodd" clip-rule="evenodd" d="m9.842 28.92.002-.346-1.471-.007a.771.771 0 0 1 .239-.39 1.62 1.62 0 0 1 .29-.209l.259-.153c.227-.136.385-.251.473-.347a.853.853 0 0 0 .23-.597.947.947 0 0 0-.21-.602c-.141-.181-.366-.272-.675-.274-.37-.002-.63.138-.778.42-.084.159-.128.365-.133.619l.344.001a1.09 1.09 0 0 1 .081-.422c.09-.19.25-.284.483-.282.157 0 .282.05.375.15.094.1.14.235.14.405a.556.556 0 0 1-.157.385 1.678 1.678 0 0 1-.341.259l-.362.224c-.243.15-.406.318-.49.503a1.811 1.811 0 0 0-.148.654l1.849.009Zm1.213.085c.358.002.617-.183.777-.553.11-.259.166-.586.168-.981.002-.418-.056-.747-.176-.987a.788.788 0 0 0-.754-.469c-.387-.002-.656.218-.806.659-.08.237-.12.52-.122.851-.002.427.062.767.193 1.021.156.305.396.457.72.459Zm-.461-.748c.088.275.242.414.46.415.176 0 .316-.083.42-.25.106-.168.16-.48.161-.939.002-.33-.034-.603-.109-.816-.074-.214-.22-.322-.436-.323-.2 0-.346.1-.439.302-.093.202-.14.5-.143.895 0 .297.028.535.086.716Z" fill="#3D4C64"/><path d="M8.03 13.069h4.592v-3.038H8.03v3.038Z" fill="#6B70C0"/><path fill-rule="evenodd" clip-rule="evenodd" d="m10.257 10.594-.032.1.085-.062.085.062-.033-.1.085-.062h-.105l-.033-.1-.032.1h-.105l.085.062Zm.477.244.033-.1-.086-.062h.106l.032-.1.033.1h.105l-.085.062.032.1-.085-.062-.085.062Zm-.98-.091-.032.1.085-.062.085.062-.033-.1.085-.062H9.84l-.032-.1-.033.1H9.67l.085.062Zm-.369.355-.032.1.085-.061.085.062-.033-.1.085-.062H9.47l-.032-.1-.033.1H9.3l.085.061Zm-.123.5-.033.101.085-.062.085.062-.032-.1.085-.062h-.105l-.033-.1-.032.1h-.105l.085.062Zm.978 1.067.032-.1-.085-.062h.106l.032-.1.033.1h.104l-.085.062.033.1-.085-.062-.085.062Zm-.88-.492.032-.1-.085-.062h.105l.033-.1.032.1h.105l-.085.062.033.1-.085-.061-.085.062Zm.403.261-.033.1.085-.061.085.062-.032-.1.085-.063h-.105l-.033-.1-.032.1h-.105l.085.063Zm.978.09.032-.1-.085-.062h.105l.033-.1.032.1h.105l-.084.062.032.1-.085-.062-.085.062Zm.39-.454-.033.1.085-.062.085.062-.033-.1.085-.062h-.105l-.032-.1-.033.1h-.105l.085.062Zm.121-.393.033-.1-.085-.063h.105l.032-.1.033.1h.105l-.085.063.032.1-.085-.062-.085.062Zm-.117-.594-.032.1.085-.062.085.062-.032-.1.085-.062h-.106l-.032-.1-.033.1h-.105l.085.062Z" fill="#FCFC02"/></svg>
